icons/diamond-24.svg

<svg xmlns="http://www.w3.org/2000/svg" width="24" height="24" viewBox="0 0 24 24"><path d="M1.527 13.237a1.75 1.75 0 010-2.474l9.272-9.273a1.75 1.75 0 012.475 0l9.272 9.273a1.75 1.75 0 010 2.474l-9.272 9.272a1.75 1.75 0 01-2.475 0zm1.06-1.414a.25.25 0 000 .354l9.273 9.272a.25.25 0 00.353 0l9.272-9.272a.25.25 0 000-.354l-9.272-9.272a.25.25 0 00-.353 0z"/></svg>

<svg xmlns="http://www.w3.org/2000/svg" width="24" height="24" viewBox="0 0 24 24">
  <defs/>
  <path d="M1.527,13.237 C0.844,12.554 0.844,11.446 1.527,10.763 L10.799,1.49 C11.482,0.806 12.591,0.806 13.274,1.49 L22.546,10.763 C23.229,11.446 23.229,12.554 22.546,13.237 L13.274,22.509 C12.591,23.193 11.482,23.193 10.799,22.509 Z M2.587,11.823 C2.54,11.87 2.514,11.934 2.514,12 C2.514,12.066 2.54,12.13 2.587,12.177 L11.86,21.449 C11.958,21.546 12.115,21.546 12.213,21.449 L21.485,12.177 C21.532,12.13 21.558,12.066 21.558,12 C21.558,11.934 21.532,11.87 21.485,11.823 L12.213,2.551 C12.115,2.454 11.958,2.454 11.86,2.551 Z"/>
</svg>
